X: 4423
T: Bonney Miller, The
R: three-two
M: 3/2
K: Bminor
M:3/2
K: Bmin
|:G2B2 B2g2 f4|G2B2 B2e2 c2A2|G2B2 B2g2 f4|e2A2 A2e2 cBA2:|
|:fga2 f2d2 g2e2|fga2 f2d2 e2A2|fga2 f2d2 g2f2|e2A2 A2e2 cBA2:|
|:d2B2 f2B2 a2B2|f2B2 B2e2 cBA2|d2B2 f2B2 a2B2|e2A2 A2e2 cBA2:|

